X:226
T:Marche Des Marseillais. Le4.226
T:Marseillaise,aka. Le4.226
L:1/8
B:L.Leadley MS#4 c1850
Z:vmp.Mike Hicken 2016 www.village-music-project.org.uk
Q:1/4=120
M:C
K:D
A/A/A|d2d2e2e2|a2f2 zddc|B2 g4 ec|d2 d>d d2 d>e|f2 f>f f2 (g>f)|fe e2 z2 ef|
g2 g>g g2 (a>{g}g)|{g}f2 f>f f2 aa|a2 fd a2 fd|A2 A>A A2 A>A|e4 g2 ec|d2d2 =c4|B2 B>Bd2 cd|
e2 e>e e2ze|=f3f efge|e2 e>e e2 =fe|d2d2d2 ed|dc c4 za-|a4 ae=fd|
e2 A>A A2 za-|a4 ae=fd|e2 A>A A2z A|d2 d>d d2d2|f8|g4a2b2|e2 e>e e2z(b|
a4) afge|d4 z2A2|d6d2|f8 |g4a2b2|e6z (b|a4) afge|d2 d>d d2|]

